X:4
T:Duellists, The
C:Nigel Eaton
R:scottische
M:4/4
K:D
A2A^G ABG2|A^GAB F4|A^GAB FBAG|E4 F4|
A2A^G ABAB|=c2BA F4|FA^G2 E=GF2|D4-D4:|
d2dc dec2|dcde A2(3cde|cBA2 FA^G2|E=GF2 E2ED|
d2dc dede|f2ed A4|FA^G2 E=GF2|D4-D4:|

